lib/svgs/team-medal.svg

<?xml version="1.0" encoding="UTF-8"?>
<svg width="16px" height="16px" viewBox="0 0 16 16" version="1.1" xmlns="http://www.w3.org/2000/svg" xmlns:xlink="http://www.w3.org/1999/xlink">
    <!-- Generator: sketchtool 51.3 (57544) - http://www.bohemiancoding.com/sketch -->
    <title>team/team-medal</title>
    <desc>Created with sketchtool.</desc>
    <defs></defs>
    <g id="Icons" stroke="none" stroke-width="1" fill="none" fill-rule="evenodd">
        <g id="Web" transform="translate(-291.000000, -2444.000000)" fill="#000000">
            <g id="team/team-medal" transform="translate(291.000000, 2444.000000)">
                <path d="M2.9137931,8.48275862 L0.5,13.5862069 L3.81034483,13.1034483 L5.53448276,16 L7.74137931,11.0344828 C5.74137931,10.9655172 4.01724138,10 2.9137931,8.48275862 M12.8448276,8.48275862 C11.7413793,9.93103448 10.0172414,10.9655172 8.01724138,10.9655172 L10.2241379,15.9310345 L11.9482759,13.0344828 L15.2586207,13.5172414 L12.8448276,8.48275862 M7.87931034,0 C5.18965517,0 3.05172414,2.13793103 3.05172414,4.82758621 C3.05172414,7.51724138 5.18965517,9.65517241 7.87931034,9.65517241 C10.5689655,9.65517241 12.7068966,7.51724138 12.7068966,4.82758621 C12.7068966,2.13793103 10.5689655,0 7.87931034,0 M7.87931034,6.20689655 C7.12068966,6.20689655 6.5,5.5862069 6.5,4.82758621 C6.5,4.06896552 7.12068966,3.44827586 7.87931034,3.44827586 C8.63793103,3.44827586 9.25862069,4.06896552 9.25862069,4.82758621 C9.25862069,5.5862069 8.63793103,6.20689655 7.87931034,6.20689655" id="Shape"></path>
            </g>
        </g>
    </g>
</svg>

<svg xmlns="http://www.w3.org/2000/svg" viewBox="0 0 16 16">
    <path d="M2.914 8.483L.5 13.586l3.31-.483L5.534 16l2.207-4.966a6.166 6.166 0 0 1-4.827-2.551m9.93 0a6.102 6.102 0 0 1-4.827 2.483l2.207 4.965 1.724-2.897 3.31.483-2.413-5.034M7.879 0a4.798 4.798 0 0 0-4.827 4.828 4.798 4.798 0 0 0 4.827 4.827 4.798 4.798 0 0 0 4.828-4.827A4.798 4.798 0 0 0 7.879 0m0 6.207c-.758 0-1.379-.62-1.379-1.38 0-.758.62-1.379 1.38-1.379.758 0 1.379.621 1.379 1.38 0 .758-.621 1.379-1.38 1.379"/>
</svg>
